hosted_logos/google-cloudbuild.svg

<?xml version="1.0" encoding="UTF-8"?>
<svg width="277px" height="240px" viewBox="0 0 277 240" version="1.1" xmlns="http://www.w3.org/2000/svg" xmlns:xlink="http://www.w3.org/1999/xlink">
    <!-- Generator: Sketch 51.2 (57519) - http://www.bohemiancoding.com/sketch -->
    <title>gcb</title>
    <desc>Created with Sketch.</desc>
    <defs></defs>
    <g id="gcb" stroke="none" stroke-width="1" fill="none" fill-rule="evenodd">
        <text id="Google-Cloud-Build" font-family="Roboto-Regular, Roboto" font-size="24" font-weight="normal" fill="#448AFF">
            <tspan x="37.0683594" y="232">Google Cloud Build</tspan>
        </text>
        <g id="google-cloud-build" transform="translate(39.000000, 0.000000)">
            <rect id="Rectangle" x="0" y="0" width="200" height="200"></rect>
            <g id="Group" transform="translate(0.000000, 14.000000)" fill-rule="nonzero">
                <path d="M197.099041,81.554023 L156.07119,9.9862069 C152.96302,4.36896552 147.057496,0.936206897 140.737549,0.832183908 L58.7854542,0.832183908 C52.3619018,0.936206897 46.5599836,4.47298851 43.4518131,9.9862069 L2.42396266,81.45 C-0.78781351,86.9632184 -0.78781351,93.8287356 2.42396266,99.341954 L43.4518131,171.325862 C46.5599836,176.943103 52.3619018,180.583908 58.7854542,180.895977 L140.737549,180.895977 C147.161102,180.687931 152.96302,177.047126 156.07119,171.429885 L197.099041,99.862069 C200.310817,94.1408046 200.310817,87.1712644 197.099041,81.554023 Z" id="Shape" fill="#4285F4"></path>
                <path d="M188.810586,114.217241 L138.976253,64.1821839 L99.8133046,51.2833333 L60.7539621,64.2862069 L84.2724522,87.8994253 L84.2724522,89.4597701 L75.7767862,80.9298851 L57.4385803,115.56954 L122.399343,180.791954 L140.944761,180.791954 C147.368313,180.583908 153.170231,176.943103 156.278402,171.325862 L188.810586,114.217241 Z" id="Shape" fill="#000000" opacity="0.07"></path>
                <g transform="translate(57.024158, 41.609195)" fill="#FFFFFF" id="Shape">
                    <g transform="translate(24.865364, 29.126437)">
                        <polygon points="17.9237831 40.1528736 35.2259322 30.1666667 35.2259322 10.0902299 29.424014 6.76149425 12.1218649 36.8241379"></polygon>
                        <polygon points="0.72523978 10.0902299 0.72523978 30.1666667 6.52715802 33.4954023 23.8293071 3.53678161 17.9237831 0.104022989"></polygon>
                    </g>
                    <g>
                        <polygon points="39.4737652 75.2086207 18.7526286 63.245977 18.7526286 39.2166667 0.310817049 28.6063218 0.310817049 73.9603448 39.4737652 96.6373563"></polygon>
                        <polygon points="22.0680105 33.3913793 42.789147 21.3247126 63.5102836 33.3913793 81.9520952 22.6770115 42.789147 0 3.72980459 22.6770115"></polygon>
                        <polygon points="66.9292712 39.2166667 66.9292712 63.245977 46.2081346 75.2086207 46.2081346 96.6373563 85.3710827 73.9603448 85.3710827 28.6063218"></polygon>
                    </g>
                </g>
            </g>
        </g>
    </g>
</svg>

<?xml version="1.0" encoding="UTF-8" standalone="no"?>
<svg
   xmlns:dc="http://purl.org/dc/elements/1.1/"
   xmlns:cc="http://creativecommons.org/ns#"
   xmlns:rdf="http://www.w3.org/1999/02/22-rdf-syntax-ns#"
   xmlns:svg="http://www.w3.org/2000/svg"
   xmlns="http://www.w3.org/2000/svg"
   xmlns:sodipodi="http://sodipodi.sourceforge.net/DTD/sodipodi-0.dtd"
   xmlns:inkscape="http://www.inkscape.org/namespaces/inkscape"
   width="277px"
   height="240px"
   viewBox="0 0 277 240"
   version="1.1"
   id="svg2234"
   sodipodi:docname="google-cloudbuild.svg"
   inkscape:version="0.92.2 5c3e80d, 2017-08-06">
  <metadata
     id="metadata2238">
    <rdf:RDF>
      <cc:Work
         rdf:about="">
        <dc:format>image/svg+xml</dc:format>
        <dc:type
           rdf:resource="http://purl.org/dc/dcmitype/StillImage" />
      </cc:Work>
    </rdf:RDF>
  </metadata>
  <sodipodi:namedview
     pagecolor="#ffffff"
     bordercolor="#666666"
     borderopacity="1"
     objecttolerance="10"
     gridtolerance="10"
     guidetolerance="10"
     inkscape:pageopacity="0"
     inkscape:pageshadow="2"
     inkscape:window-width="1024"
     inkscape:window-height="716"
     id="namedview2236"
     showgrid="false"
     inkscape:snap-text-baseline="true"
     inkscape:zoom="2.1227477"
     inkscape:cx="150.86914"
     inkscape:cy="121.52148"
     inkscape:window-x="0"
     inkscape:window-y="0"
     inkscape:window-maximized="0"
     inkscape:current-layer="svg2234" />
  <!-- Generator: Sketch 51.2 (57519) - http://www.bohemiancoding.com/sketch -->
  <title
     id="title2202">gcb</title>
  <desc
     id="desc2204">Created with Sketch.</desc>
  <defs
     id="defs2206" />
  <g
     aria-label="Google Cloud Build"
     style="font-weight:normal;font-size:24px;font-family:Roboto-Regular, Roboto;fill:#448aff;fill-rule:evenodd;stroke:none;stroke-width:1"
     id="Google-Cloud-Build">
    <path
       d="m 53.966797,230.71094 q -1.429688,0.65625 -3.128906,1.14843 -1.6875,0.48047 -3.269532,0.48047 -2.039062,0 -3.738281,-0.5625 -1.699219,-0.5625 -2.894531,-1.6875 -1.207031,-1.13672 -1.863281,-2.83593 -0.65625,-1.71094 -0.65625,-3.9961 0,-4.18359 2.4375,-6.59765 2.449218,-2.42579 6.714843,-2.42579 1.488282,0 3.035157,0.36329 1.558593,0.35156 3.351562,1.20703 v 2.7539 h -0.210937 q -0.363282,-0.28125 -1.054688,-0.73828 -0.691406,-0.45703 -1.359375,-0.76172 -0.808594,-0.36328 -1.839844,-0.59765 -1.019531,-0.2461 -2.320312,-0.2461 -2.929688,0 -4.640625,1.88672 -1.699219,1.875 -1.699219,5.08594 0,3.38672 1.78125,5.27344 1.78125,1.875 4.851563,1.875 1.125,0 2.238281,-0.22266 1.125,-0.22266 1.96875,-0.57422 v -4.27734 h -4.675781 v -2.03906 h 6.972656 z"
       style=""
       id="path5944" />
    <path
       d="m 69.001953,225.46094 q 0,3.19922 -1.640625,5.05078 -1.640625,1.85156 -4.394531,1.85156 -2.777344,0 -4.417969,-1.85156 -1.628906,-1.85156 -1.628906,-5.05078 0,-3.19922 1.628906,-5.05078 1.640625,-1.86329 4.417969,-1.86329 2.753906,0 4.394531,1.86329 1.640625,1.85156 1.640625,5.05078 z m -2.273437,0 q 0,-2.54297 -0.996094,-3.77344 -0.996094,-1.24219 -2.765625,-1.24219 -1.792969,0 -2.789063,1.24219 -0.984375,1.23047 -0.984375,3.77344 0,2.46093 0.996094,3.73828 0.996094,1.26562 2.777344,1.26562 1.757812,0 2.753906,-1.2539 1.007813,-1.26563 1.007813,-3.75 z"
       style=""
       id="path5946" />
    <path
       d="m 83.580078,225.46094 q 0,3.19922 -1.640625,5.05078 -1.640625,1.85156 -4.394531,1.85156 -2.777344,0 -4.417969,-1.85156 -1.628906,-1.85156 -1.628906,-5.05078 0,-3.19922 1.628906,-5.05078 1.640625,-1.86329 4.417969,-1.86329 2.753906,0 4.394531,1.86329 1.640625,1.85156 1.640625,5.05078 z m -2.273437,0 q 0,-2.54297 -0.996094,-3.77344 -0.996094,-1.24219 -2.765625,-1.24219 -1.792969,0 -2.789063,1.24219 -0.984375,1.23047 -0.984375,3.77344 0,2.46093 0.996094,3.73828 0.996094,1.26562 2.777344,1.26562 1.757812,0 2.753906,-1.2539 1.007813,-1.26563 1.007813,-3.75 z"
       style=""
       id="path5948" />
    <path
       d="m 97.619141,230.51172 q 0,3.32812 -1.511719,4.88672 -1.511719,1.55859 -4.652344,1.55859 -1.042969,0 -2.039062,-0.15234 -0.984375,-0.14063 -1.945313,-0.41016 v -2.25 h 0.117188 q 0.539062,0.21094 1.710937,0.51563 1.171875,0.3164 2.34375,0.3164 1.125,0 1.863281,-0.26953 0.738282,-0.26953 1.148438,-0.75 0.410156,-0.45703 0.585937,-1.10156 0.175782,-0.64453 0.175782,-1.44141 v -1.19531 q -0.996094,0.79687 -1.910157,1.19531 -0.902343,0.38672 -2.308593,0.38672 -2.34375,0 -3.726563,-1.6875 -1.371094,-1.69922 -1.371094,-4.78125 0,-1.6875 0.46875,-2.90625 0.480469,-1.23047 1.300782,-2.12109 0.761718,-0.83203 1.851562,-1.28907 1.089844,-0.46875 2.167969,-0.46875 1.136719,0 1.898437,0.23438 0.773438,0.22266 1.628907,0.69141 l 0.140625,-0.5625 h 2.0625 z m -2.203125,-2.10938 v -7.13672 q -0.878907,-0.39843 -1.640625,-0.5625 -0.75,-0.17578 -1.5,-0.17578 -1.816407,0 -2.859375,1.21875 -1.042969,1.21875 -1.042969,3.53907 0,2.20312 0.773437,3.33984 0.773438,1.13672 2.566407,1.13672 0.960937,0 1.921875,-0.36328 0.972656,-0.375 1.78125,-0.9961 z"
       style=""
       id="path5950" />
    <path
       d="m 104.18164,232 h -2.20312 v -18.23438 h 2.20312 z"
       style=""
       id="path5952" />
    <path
       d="m 119.52148,225.68359 h -9.64453 q 0,1.20703 0.36328,2.10938 0.36329,0.89062 0.9961,1.46484 0.60937,0.5625 1.4414,0.84375 0.84375,0.28125 1.85157,0.28125 1.33593,0 2.68359,-0.52734 1.35938,-0.53906 1.93359,-1.05469 h 0.11719 v 2.40234 q -1.11328,0.46875 -2.27344,0.78516 -1.16015,0.31641 -2.4375,0.31641 -3.25781,0 -5.08593,-1.75782 -1.82813,-1.76953 -1.82813,-5.01562 0,-3.21094 1.7461,-5.09766 1.75781,-1.88672 4.61718,-1.88672 2.64844,0 4.07813,1.54688 1.4414,1.54687 1.4414,4.39453 z m -2.14453,-1.6875 q -0.0117,-1.73437 -0.8789,-2.68359 -0.85547,-0.94922 -2.61328,-0.94922 -1.76954,0 -2.82422,1.04297 -1.04297,1.04297 -1.1836,2.58984 z"
       style=""
       id="path5954" />
    <path
       d="m 144.95117,230.73437 q -0.64453,0.28125 -1.17187,0.52735 -0.51563,0.24609 -1.35938,0.51562 -0.71484,0.22266 -1.55859,0.375 -0.83203,0.16407 -1.83985,0.16407 -1.89843,0 -3.45703,-0.52735 -1.54687,-0.53906 -2.69531,-1.67578 -1.125,-1.11328 -1.75781,-2.82422 -0.63281,-1.72265 -0.63281,-3.99609 0,-2.15625 0.60937,-3.85547 0.60938,-1.69922 1.75781,-2.87109 1.11328,-1.13672 2.6836,-1.73438 1.58203,-0.59766 3.5039,-0.59766 1.40625,0 2.80078,0.33985 1.40625,0.33984 3.11719,1.19531 v 2.75391 h -0.17578 q -1.44141,-1.20703 -2.85937,-1.75782 -1.41797,-0.55078 -3.03516,-0.55078 -1.32422,0 -2.39063,0.4336 -1.05468,0.42187 -1.88671,1.32422 -0.8086,0.8789 -1.26563,2.22656 -0.44531,1.33594 -0.44531,3.09375 0,1.83984 0.49219,3.16406 0.5039,1.32422 1.28906,2.15625 0.82031,0.86719 1.91015,1.28906 1.10157,0.41016 2.32032,0.41016 1.67578,0 3.14062,-0.57422 1.46485,-0.57422 2.74219,-1.72266 h 0.16406 z"
       style=""
       id="path5956" />
    <path
       d="m 150.30664,232 h -2.20312 v -18.23438 h 2.20312 z"
       style=""
       id="path5958" />
    <path
       d="m 165.8457,225.46094 q 0,3.19922 -1.64062,5.05078 -1.64063,1.85156 -4.39453,1.85156 -2.77735,0 -4.41797,-1.85156 -1.62891,-1.85156 -1.62891,-5.05078 0,-3.19922 1.62891,-5.05078 1.64062,-1.86329 4.41797,-1.86329 2.7539,0 4.39453,1.86329 1.64062,1.85156 1.64062,5.05078 z m -2.27343,0 q 0,-2.54297 -0.9961,-3.77344 -0.99609,-1.24219 -2.76562,-1.24219 -1.79297,0 -2.78907,1.24219 -0.98437,1.23047 -0.98437,3.77344 0,2.46093 0.99609,3.73828 0.9961,1.26562 2.77735,1.26562 1.75781,0 2.7539,-1.2539 1.00782,-1.26563 1.00782,-3.75 z"
       style=""
       id="path5960" />
    <path
       d="m 180.11914,232 h -2.20312 v -1.45313 q -1.11329,0.87891 -2.13282,1.34766 -1.01953,0.46875 -2.25,0.46875 -2.0625,0 -3.21093,-1.25391 -1.14844,-1.26562 -1.14844,-3.70312 v -8.49609 h 2.20312 v 7.45312 q 0,0.99609 0.0937,1.71094 0.0937,0.70312 0.39844,1.20703 0.31641,0.51562 0.82031,0.75 0.50391,0.23437 1.46485,0.23437 0.85547,0 1.86328,-0.44531 1.01953,-0.44531 1.89844,-1.13672 v -9.77343 h 2.20312 z"
       style=""
       id="path5962" />
    <path
       d="m 195.07227,232 h -2.20313 v -1.37109 q -0.94922,0.82031 -1.98047,1.27734 -1.03125,0.45703 -2.23828,0.45703 -2.34375,0 -3.72656,-1.80469 -1.3711,-1.80468 -1.3711,-5.0039 0,-1.66407 0.46875,-2.96485 0.48047,-1.30078 1.28907,-2.21484 0.79687,-0.89063 1.85156,-1.35938 1.06641,-0.46875 2.20312,-0.46875 1.03125,0 1.82813,0.22266 0.79687,0.21094 1.67578,0.66797 v -5.67188 h 2.20313 z m -2.20313,-3.22266 v -7.51172 q -0.89062,-0.39843 -1.59375,-0.55078 -0.70312,-0.15234 -1.53516,-0.15234 -1.85156,0 -2.88281,1.28906 -1.03125,1.28906 -1.03125,3.65625 0,2.33203 0.79688,3.55078 0.79687,1.20703 2.55468,1.20703 0.9375,0 1.89844,-0.41015 0.96094,-0.42188 1.79297,-1.07813 z"
       style=""
       id="path5964" />
    <path
       d="m 221.18164,226.63281 q 0,1.30078 -0.49219,2.29688 -0.49218,0.99609 -1.32422,1.64062 -0.98437,0.77344 -2.16796,1.10156 Q 216.02539,232 214.20898,232 h -6.1875 v -17.44922 h 5.16797 q 1.91016,0 2.85938,0.14063 0.94922,0.14062 1.8164,0.58593 0.96094,0.50391 1.39454,1.30078 0.43359,0.78516 0.43359,1.88672 0,1.24219 -0.63281,2.1211 -0.63282,0.86718 -1.6875,1.39453 v 0.0937 q 1.76953,0.36328 2.78906,1.55859 1.01953,1.1836 1.01953,3 z m -3.90234,-7.86328 q 0,-0.63281 -0.21094,-1.06641 -0.21094,-0.43359 -0.67969,-0.70312 -0.55078,-0.31641 -1.33594,-0.38672 -0.78515,-0.082 -1.94531,-0.082 h -2.76562 v 5.03906 h 3 q 1.08984,0 1.73437,-0.10547 0.64453,-0.11718 1.19531,-0.46875 0.55079,-0.35156 0.77344,-0.90234 0.23438,-0.5625 0.23438,-1.32422 z m 1.48828,7.95703 q 0,-1.05469 -0.31641,-1.67578 -0.3164,-0.62109 -1.14844,-1.05469 -0.5625,-0.29297 -1.37109,-0.375 -0.79687,-0.0937 -1.94531,-0.0937 h -3.64453 v 6.49219 h 3.07031 q 1.52344,0 2.49609,-0.15234 0.97266,-0.16407 1.59375,-0.58594 0.65625,-0.45703 0.96094,-1.04297 0.30469,-0.58594 0.30469,-1.51172 z"
       style=""
       id="path5966" />
    <path
       d="m 235.15039,232 h -2.20312 v -1.45313 q -1.11329,0.87891 -2.13282,1.34766 -1.01953,0.46875 -2.25,0.46875 -2.0625,0 -3.21093,-1.25391 -1.14844,-1.26562 -1.14844,-3.70312 v -8.49609 h 2.20312 v 7.45312 q 0,0.99609 0.0937,1.71094 0.0937,0.70312 0.39844,1.20703 0.31641,0.51562 0.82031,0.75 0.50391,0.23437 1.46485,0.23437 0.85547,0 1.86328,-0.44531 1.01953,-0.44531 1.89844,-1.13672 v -9.77343 h 2.20312 z"
       style=""
       id="path5968" />
    <path
       d="m 241.85352,216.71875 h -2.48438 v -2.28516 h 2.48438 z M 241.71289,232 h -2.20312 v -13.08984 h 2.20312 z"
       style=""
       id="path5970" />
    <path
       d="m 248.32227,232 h -2.20313 v -18.23438 h 2.20313 z"
       style=""
       id="path5972" />
    <path
       d="m 263.32227,232 h -2.20313 v -1.37109 q -0.94922,0.82031 -1.98047,1.27734 -1.03125,0.45703 -2.23828,0.45703 -2.34375,0 -3.72656,-1.80469 -1.3711,-1.80468 -1.3711,-5.0039 0,-1.66407 0.46875,-2.96485 0.48047,-1.30078 1.28907,-2.21484 0.79687,-0.89063 1.85156,-1.35938 1.06641,-0.46875 2.20312,-0.46875 1.03125,0 1.82813,0.22266 0.79687,0.21094 1.67578,0.66797 v -5.67188 h 2.20313 z m -2.20313,-3.22266 v -7.51172 q -0.89062,-0.39843 -1.59375,-0.55078 -0.70312,-0.15234 -1.53516,-0.15234 -1.85156,0 -2.88281,1.28906 -1.03125,1.28906 -1.03125,3.65625 0,2.33203 0.79688,3.55078 0.79687,1.20703 2.55468,1.20703 0.9375,0 1.89844,-0.41015 0.96094,-0.42188 1.79297,-1.07813 z"
       style=""
       id="path5974" />
  </g>
  <g
     style="fill:none;fill-rule:evenodd;stroke:none;stroke-width:1"
     transform="translate(39)"
     id="google-cloud-build">
    <rect
       height="200"
       width="200"
       y="0"
       x="0"
       id="Rectangle" />
    <g
       style="fill-rule:nonzero"
       transform="translate(0,14)"
       id="Group">
      <path
         style="fill:#4285f4"
         inkscape:connector-curvature="0"
         id="Shape"
         d="M 197.09904,81.554023 156.07119,9.9862069 c -3.10817,-5.6172414 -9.01369,-9.05 -15.33364,-9.15402299 H 58.785454 C 52.361902,0.9362069 46.559984,4.4729885 43.451813,9.9862069 L 2.4239627,81.45 c -3.21177621,5.513218 -3.21177621,12.378736 0,17.891954 L 43.451813,171.32586 c 3.108171,5.61724 8.910089,9.25805 15.333641,9.57012 h 81.952096 c 6.42355,-0.20805 12.22547,-3.84885 15.33364,-9.46609 l 41.02785,-71.567821 c 3.21178,-5.721264 3.21178,-12.690805 0,-18.308046 z" />
      <path
         style="opacity:0.07000002;fill:#000000"
         inkscape:connector-curvature="0"
         id="path2213"
         d="M 188.81059,114.21724 138.97625,64.182184 99.813305,51.283333 60.753962,64.286207 84.272452,87.899425 v 1.560345 l -8.495666,-8.529885 -18.338206,34.639655 64.96076,65.22241 h 18.54542 c 6.42355,-0.20804 12.22547,-3.84885 15.33364,-9.46609 z" />
      <g
         style="fill:#ffffff"
         id="g2229"
         transform="translate(57.024158,41.609195)">
        <g
           id="g2219"
           transform="translate(24.865364,29.126437)">
          <polygon
             id="polygon2215"
             points="35.225932,10.09023 29.424014,6.7614943 12.121865,36.824138 17.923783,40.152874 35.225932,30.166667 " />
          <polygon
             id="polygon2217"
             points="6.527158,33.495402 23.829307,3.5367816 17.923783,0.10402299 0.72523978,10.09023 0.72523978,30.166667 " />
        </g>
        <g
           id="g2227">
          <polygon
             id="polygon2221"
             points="18.752629,39.216667 0.31081705,28.606322 0.31081705,73.960345 39.473765,96.637356 39.473765,75.208621 18.752629,63.245977 " />
          <polygon
             id="polygon2223"
             points="63.510284,33.391379 81.952095,22.677011 42.789147,0 3.7298046,22.677011 22.06801,33.391379 42.789147,21.324713 " />
          <polygon
             id="polygon2225"
             points="46.208135,75.208621 46.208135,96.637356 85.371083,73.960345 85.371083,28.606322 66.929271,39.216667 66.929271,63.245977 " />
        </g>
      </g>
    </g>
  </g>
</svg>
